assets/icons/font.svg

<?xml version="1.0" encoding="UTF-8" standalone="no"?>
<svg viewBox="0 0 24 24" width="24" height="24" version="1.1" id="svg4" sodipodi:docname="font.svg" inkscape:version="1.1 (ce6663b3b7, 2021-05-25)"
   xmlns:inkscape="http://www.inkscape.org/namespaces/inkscape"
   xmlns:sodipodi="http://sodipodi.sourceforge.net/DTD/sodipodi-0.dtd"
   xmlns="http://www.w3.org/2000/svg"
   xmlns:svg="http://www.w3.org/2000/svg"
   xmlns:rdf="http://www.w3.org/1999/02/22-rdf-syntax-ns#"
   xmlns:cc="http://creativecommons.org/ns#"
   xmlns:dc="http://purl.org/dc/elements/1.1/">
   <metadata id="metadata10">
      <rdf:RDF>
         <cc:Work rdf:about="">
            <dc:format>image/svg+xml</dc:format>
            <dc:type rdf:resource="http://purl.org/dc/dcmitype/StillImage" />
         </cc:Work>
      </rdf:RDF>
   </metadata>
   <defs id="defs8" />
   <sodipodi:namedview pagecolor="#ffffff" bordercolor="#666666" borderopacity="1" objecttolerance="10" gridtolerance="10" guidetolerance="10" inkscape:pageopacity="0" inkscape:pageshadow="2" inkscape:window-width="1920" inkscape:window-height="1043" id="namedview6" showgrid="true" inkscape:zoom="30.5" inkscape:cx="5.5245902" inkscape:cy="15.704918" inkscape:window-x="1920" inkscape:window-y="0" inkscape:window-maximized="1" inkscape:current-layer="svg4" inkscape:document-rotation="0" inkscape:pagecheckerboard="0">
      <inkscape:grid type="xygrid" id="grid855" />
   </sodipodi:namedview>
   <path id="path3032-7" style="font-style:normal;font-variant:normal;font-weight:500;font-stretch:normal;font-size:17.3333px;line-height:1.25;font-family:Ubuntu;-inkscape-font-specification:'Ubuntu, Medium';font-variant-ligatures:normal;font-variant-caps:normal;font-variant-numeric:normal;font-feature-settings:normal;text-align:start;letter-spacing:0px;word-spacing:0px;writing-mode:lr-tb;text-anchor:start;fill:#808080;fill-opacity:1;stroke:none;stroke-width:0.9995" d="m 13.398926,2 c -0.505563,1.067825 -0.997947,2.1503828 -1.474609,3.2470702 -0.122677,0.2822466 -0.249806,0.6013466 -0.373536,0.8911134 l 1.306153,3.4228514 c 0.233752,-0.6350425 0.47427,-1.2940825 0.693359,-1.8676756 0.433338,-1.0967 0.815236,-2.0281813 1.147461,-2.7929688 0.317775,0.735925 0.692151,1.6598836 1.125489,2.7709961 0.371225,0.9518246 0.759531,1.9995508 1.152344,3.0786133 h -3.66211 l 0.95459,2.5 h 3.430176 c 0.202225,0.606063 0.508435,1.41987 0.725097,1.99707 0.216663,0.5772 0.427658,1.161305 0.629883,1.75293 h 2.946777 c -0.563337,-1.601737 -1.105976,-3.07961 -1.625976,-4.436035 -0.505562,-1.356412 -1.003029,-2.642855 -1.494141,-3.85498 -0.476663,-1.2121256 -0.954001,-2.3652398 -1.430664,-3.4619148 -0.476662,-1.0966873 -0.966606,-2.1792452 -1.472167,-3.2470702 z" />
   <g id="layer9" label="status" style="display:inline;stroke-width:0.8" transform="matrix(1.25,0,0,1.25,-514.15137,-114.25)" />
   <g id="layer2" style="display:inline;stroke-width:0.8" transform="matrix(1.25,0,0,1.25,-212.90112,-573)" />
   <g id="layer4" style="display:inline;stroke-width:0.8" transform="matrix(1.25,0,0,1.25,-212.90112,-573)" />
   <g id="g1812" style="display:inline;stroke-width:0.8" transform="matrix(1.25,0,0,1.25,-212.90112,-573)" />
   <g id="g6217" style="display:inline;stroke-width:0.8" transform="matrix(1.25,0,0,1.25,-212.90112,-573)" />
   <g id="layer3" style="display:inline;stroke-width:0.8" transform="matrix(1.25,0,0,1.25,-212.90112,-573)" />
   <g id="g1833" style="display:inline;stroke-width:0.8" transform="matrix(1.25,0,0,1.25,-212.90112,-573)" />
   <path id="path876" style="color:#000000;font-style:normal;font-variant:normal;font-weight:normal;font-stretch:normal;font-size:medium;line-height:normal;font-family:sans-serif;font-variant-ligatures:normal;font-variant-position:normal;font-variant-caps:normal;font-variant-numeric:normal;font-variant-alternates:normal;font-variant-east-asian:normal;font-feature-settings:normal;font-variation-settings:normal;text-indent:0;text-align:start;text-decoration:none;text-decoration-line:none;text-decoration-style:solid;text-decoration-color:#000000;letter-spacing:normal;word-spacing:normal;text-transform:none;writing-mode:lr-tb;direction:ltr;text-orientation:mixed;dominant-baseline:auto;baseline-shift:baseline;text-anchor:start;white-space:normal;shape-padding:0;shape-margin:0;inline-size:0;clip-rule:nonzero;display:inline;overflow:visible;visibility:visible;isolation:auto;mix-blend-mode:normal;color-interpolation:sRGB;color-interpolation-filters:linearRGB;solid-color:#000000;solid-opacity:1;vector-effect:none;fill:#808080;fill-opacity:1;fill-rule:nonzero;stroke:none;stroke-width:1px;stroke-linecap:butt;stroke-linejoin:miter;stroke-miterlimit:4;stroke-dasharray:none;stroke-dashoffset:0;stroke-opacity:1;color-rendering:auto;image-rendering:auto;shape-rendering:auto;text-rendering:auto;enable-background:accumulate;stop-color:#000000" d="m 10.34375,7 h -1.6875 l -5.2109375,13.75 h -1.4453125 v 1.25 h 3.75 v -1.25 h -0.9692383 l 1.4282227,-3.75 h 5.2880856 l 1.428223,3.75 h -0.925293 v 1.25 h 5 v -1.25 h -1.401368 z m -1.4907226,3.061524 2.1679686,5.688476 h -4.3359374 z" sodipodi:nodetypes="ccccccccccccccccccccc" />
</svg>

<svg width="24" height="24" xmlns="http://www.w3.org/2000/svg"><path style="font-style:normal;font-variant:normal;font-weight:500;font-stretch:normal;font-size:17.3333px;line-height:1.25;font-family:Ubuntu;-inkscape-font-specification:'Ubuntu, Medium';font-variant-ligatures:normal;font-variant-caps:normal;font-variant-numeric:normal;font-feature-settings:normal;text-align:start;letter-spacing:0;word-spacing:0;writing-mode:lr-tb;text-anchor:start;fill:gray;fill-opacity:1;stroke:none;stroke-width:.9995" d="M13.399 2a110.84 110.84 0 0 0-1.475 3.247c-.122.282-.25.601-.373.891l1.306 3.423c.234-.635.474-1.294.693-1.868A92.53 92.53 0 0 1 14.698 4.9c.318.736.692 1.66 1.125 2.771.371.952.76 2 1.153 3.079h-3.663l.955 2.5h3.43c.202.606.509 1.42.725 1.997.217.577.428 1.161.63 1.753H22a169.887 169.887 0 0 0-1.626-4.436 147.253 147.253 0 0 0-1.494-3.855A106.034 106.034 0 0 0 15.977 2z"/><path style="color:#000;font-style:normal;font-variant:normal;font-weight:400;font-stretch:normal;font-size:medium;line-height:normal;font-family:sans-serif;font-variant-ligatures:normal;font-variant-position:normal;font-variant-caps:normal;font-variant-numeric:normal;font-variant-alternates:normal;font-variant-east-asian:normal;font-feature-settings:normal;font-variation-settings:normal;text-indent:0;text-align:start;text-decoration:none;text-decoration-line:none;text-decoration-style:solid;text-decoration-color:#000;letter-spacing:normal;word-spacing:normal;text-transform:none;writing-mode:lr-tb;direction:ltr;text-orientation:mixed;dominant-baseline:auto;baseline-shift:baseline;text-anchor:start;white-space:normal;shape-padding:0;shape-margin:0;inline-size:0;clip-rule:nonzero;display:inline;overflow:visible;visibility:visible;isolation:auto;mix-blend-mode:normal;color-interpolation:sRGB;color-interpolation-filters:linearRGB;solid-color:#000;solid-opacity:1;vector-effect:none;fill:gray;fill-opacity:1;fill-rule:nonzero;stroke:none;stroke-width:1px;stroke-linecap:butt;stroke-linejoin:miter;stroke-miterlimit:4;stroke-dasharray:none;stroke-dashoffset:0;stroke-opacity:1;color-rendering:auto;image-rendering:auto;shape-rendering:auto;text-rendering:auto;enable-background:accumulate;stop-color:#000" d="M10.344 7H8.656l-5.21 13.75H2V22h3.75v-1.25h-.97L6.21 17h5.288l1.428 3.75H12V22h5v-1.25h-1.401zm-1.491 3.062 2.168 5.688H6.685z"/></svg>
